packages/dnb-ui-lib/assets/icons/subtract_circled_medium.svg

<svg width="24" height="24" viewBox="0 0 24 24" fill="none" xmlns="http://www.w3.org/2000/svg">
<path d="M17 12.75C17.4142 12.75 17.75 12.4142 17.75 12C17.75 11.5858 17.4142 11.25 17 11.25V12.75ZM7 11.25C6.58579 11.25 6.25 11.5858 6.25 12C6.25 12.4142 6.58579 12.75 7 12.75V11.25ZM22.5 12C22.5 17.799 17.799 22.5 12 22.5V24C18.6274 24 24 18.6274 24 12H22.5ZM12 22.5C6.20101 22.5 1.5 17.799 1.5 12H0C0 18.6274 5.37258 24 12 24V22.5ZM1.5 12C1.5 6.20101 6.20101 1.5 12 1.5V0C5.37258 0 0 5.37258 0 12H1.5ZM12 1.5C17.799 1.5 22.5 6.20101 22.5 12H24C24 5.37258 18.6274 0 12 0V1.5ZM17 11.25H7V12.75H17V11.25Z" fill="black"/>
</svg>

<svg width="24" height="24" viewBox="0 0 24 24" fill="none" xmlns="http://www.w3.org/2000/svg"><path d="M17 12.75a.75.75 0 000-1.5v1.5zm-10-1.5a.75.75 0 000 1.5v-1.5zm15.5.75c0 5.799-4.701 10.5-10.5 10.5V24c6.627 0 12-5.373 12-12h-1.5zM12 22.5C6.201 22.5 1.5 17.799 1.5 12H0c0 6.627 5.373 12 12 12v-1.5zM1.5 12C1.5 6.201 6.201 1.5 12 1.5V0C5.373 0 0 5.373 0 12h1.5zM12 1.5c5.799 0 10.5 4.701 10.5 10.5H24c0-6.627-5.373-12-12-12v1.5zm5 9.75H7v1.5h10v-1.5z" fill="#000"/></svg>
